X: 14703
T: Gan Ainm
R: jig
M: 6/8
K: Gmajor
|:B/c/|Bba gfe|e2 d B2d|d2 c A2 d|edB B2c|
Bba gfe|e2 d B2d|d2 c A2 F|A3 G2:|
|:G|FGA Bcd|e2 d B2 G|FGA Bcd|e2 d B2 G|
FGA B2 c|d2 d2 d2|c2 e a2 c|e3 d2:|
|:E|EDE =cec|B2 d g2 f|f2 e efg|e2 d =c2 B|
A2 A ABd|G2 G2 F2|F2 E2 E2|B3 c2:|

